src/pages/homepage/images/ao.svg

<svg width="136" height="69" viewBox="0 0 136 69" fill="none" xmlns="http://www.w3.org/2000/svg">
<path d="M135.563 34.6174C135.508 53.5549 120.301 68.5086 101.186 68.4179C82.5651 68.3268 67.5219 53.1002 67.5584 34.3627C67.5949 15.6617 82.9301 0.599219 101.825 0.68986C120.556 0.781002 135.618 15.9164 135.563 34.6174ZM80.8855 34.3627C80.8307 45.9691 90.0684 55.2651 101.625 55.2651C112.98 55.2651 122.382 45.8602 122.364 34.5085C122.364 23.1388 113.035 13.9516 101.515 13.9516C90.1048 13.9516 80.922 23.0112 80.8673 34.3627H80.8855ZM68.5077 68.3997C62.7205 68.3997 57.6269 68.4727 52.5518 68.3268C51.8215 68.3086 50.8174 67.3626 50.4522 66.6167C44.5738 54.3921 38.7682 42.131 32.9445 29.8694C31.3927 26.6133 29.7497 23.3935 28.3621 20.0643C27.924 19.0273 27.851 17.5354 28.271 16.4988C30.3522 11.4413 32.6341 6.45679 35.0623 0.999282C46.2898 23.6118 57.2619 45.7508 68.5077 68.3997ZM0.15625 68.3997C5.83394 57.0481 11.2925 46.1149 16.9338 34.8357C20.4025 41.8945 23.7069 48.5523 26.9017 55.2651C27.1755 55.8474 26.9748 56.7752 26.7374 57.4664C25.642 60.6138 24.5285 63.7788 23.2505 66.8532C22.9765 67.5084 22.009 68.3086 21.3335 68.3268C14.4509 68.4362 7.56834 68.3997 0.15625 68.3997Z" fill="#1B1B1B"/>
<path fill-rule="evenodd" clip-rule="evenodd" d="M135.563 34.6174C135.508 53.5549 120.301 68.5086 101.186 68.4179C82.5651 68.3268 67.5219 53.1002 67.5584 34.3627C67.5949 15.6617 82.9301 0.599219 101.825 0.68986C120.556 0.781002 135.618 15.9164 135.563 34.6174ZM80.8855 34.3627C80.8307 45.9691 90.0684 55.2651 101.625 55.2651C112.98 55.2651 122.382 45.8602 122.364 34.5085C122.364 23.1388 113.035 13.9516 101.515 13.9516C90.1048 13.9516 80.922 23.0112 80.8673 34.3627H80.8855ZM68.5077 68.3997C62.7205 68.3997 57.6269 68.4727 52.5518 68.3268C51.8215 68.3086 50.8174 67.3626 50.4522 66.6167C44.5738 54.3921 38.7682 42.131 32.9445 29.8694C31.3927 26.6133 29.7497 23.3935 28.3621 20.0643C27.924 19.0273 27.851 17.5354 28.271 16.4988C30.3522 11.4413 32.6341 6.45679 35.0623 0.999282C46.2898 23.6118 57.2619 45.7508 68.5077 68.3997ZM0.15625 68.3997C5.83394 57.0481 11.2925 46.1149 16.9338 34.8357C20.4025 41.8945 23.7069 48.5523 26.9017 55.2651C27.1755 55.8474 26.9748 56.7752 26.7374 57.4664C25.642 60.6138 24.5285 63.7788 23.2505 66.8532C22.9765 67.5084 22.009 68.3086 21.3335 68.3268C14.4509 68.4362 7.56834 68.3997 0.15625 68.3997Z" fill="#1B1B1B"/>
<path d="M135.563 34.6174C135.508 53.5549 120.301 68.5086 101.186 68.4179C82.5651 68.3268 67.5219 53.1002 67.5584 34.3627C67.5949 15.6617 82.9301 0.599219 101.825 0.68986C120.556 0.781002 135.618 15.9164 135.563 34.6174ZM80.8855 34.3627C80.8307 45.9691 90.0684 55.2651 101.625 55.2651C112.98 55.2651 122.382 45.8602 122.364 34.5085C122.364 23.1388 113.035 13.9516 101.515 13.9516C90.1048 13.9516 80.922 23.0112 80.8673 34.3627H80.8855ZM68.5077 68.3997C62.7205 68.3997 57.6269 68.4727 52.5518 68.3268C51.8215 68.3086 50.8174 67.3626 50.4522 66.6167C44.5738 54.3921 38.7682 42.131 32.9445 29.8694C31.3927 26.6133 29.7497 23.3935 28.3621 20.0643C27.924 19.0273 27.851 17.5354 28.271 16.4988C30.3522 11.4413 32.6341 6.45679 35.0623 0.999282C46.2898 23.6118 57.2619 45.7508 68.5077 68.3997ZM0.15625 68.3997C5.83394 57.0481 11.2925 46.1149 16.9338 34.8357C20.4025 41.8945 23.7069 48.5523 26.9017 55.2651C27.1755 55.8474 26.9748 56.7752 26.7374 57.4664C25.642 60.6138 24.5285 63.7788 23.2505 66.8532C22.9765 67.5084 22.009 68.3086 21.3335 68.3268C14.4509 68.4362 7.56834 68.3997 0.15625 68.3997Z" fill="#1B1B1B"/>
<path d="M135.563 34.6174C135.508 53.5549 120.301 68.5086 101.186 68.4179C82.5651 68.3268 67.5219 53.1002 67.5584 34.3627C67.5949 15.6617 82.9301 0.599219 101.825 0.68986C120.556 0.781002 135.618 15.9164 135.563 34.6174ZM80.8855 34.3627C80.8307 45.9691 90.0684 55.2651 101.625 55.2651C112.98 55.2651 122.382 45.8602 122.364 34.5085C122.364 23.1388 113.035 13.9516 101.515 13.9516C90.1048 13.9516 80.922 23.0112 80.8673 34.3627H80.8855ZM68.5077 68.3997C62.7205 68.3997 57.6269 68.4727 52.5518 68.3268C51.8215 68.3086 50.8174 67.3626 50.4522 66.6167C44.5738 54.3921 38.7682 42.131 32.9445 29.8694C31.3927 26.6133 29.7497 23.3935 28.3621 20.0643C27.924 19.0273 27.851 17.5354 28.271 16.4988C30.3522 11.4413 32.6341 6.45679 35.0623 0.999282C46.2898 23.6118 57.2619 45.7508 68.5077 68.3997ZM0.15625 68.3997C5.83394 57.0481 11.2925 46.1149 16.9338 34.8357C20.4025 41.8945 23.7069 48.5523 26.9017 55.2651C27.1755 55.8474 26.9748 56.7752 26.7374 57.4664C25.642 60.6138 24.5285 63.7788 23.2505 66.8532C22.9765 67.5084 22.009 68.3086 21.3335 68.3268C14.4509 68.4362 7.56834 68.3997 0.15625 68.3997Z" fill="#1B1B1B"/>
</svg>

<svg xmlns="http://www.w3.org/2000/svg" width="136" height="69" fill="none"><path fill="#1B1B1B" d="M135.563 34.617c-.055 18.938-15.262 33.892-34.377 33.8-18.62-.09-33.664-15.317-33.628-34.054C67.595 15.662 82.93.599 101.825.69c18.731.091 33.793 15.226 33.738 33.927m-54.677-.254c-.055 11.606 9.182 20.902 20.739 20.902 11.355 0 20.757-9.405 20.739-20.757 0-11.37-9.329-20.556-20.849-20.556-11.41 0-20.593 9.06-20.648 20.41zM68.508 68.4c-5.787 0-10.881.073-15.956-.073-.73-.018-1.735-.964-2.1-1.71-5.878-12.225-11.684-24.486-17.507-36.748-1.552-3.256-3.195-6.475-4.583-9.805-.438-1.037-.511-2.529-.091-3.565 2.081-5.058 4.363-10.042 6.791-15.5 11.228 22.613 22.2 44.752 33.446 67.4m-68.352 0c5.678-11.352 11.137-22.285 16.778-33.564 3.468 7.059 6.773 13.716 9.968 20.43.273.581.073 1.51-.165 2.2-1.095 3.148-2.208 6.313-3.486 9.387-.274.655-1.242 1.456-1.918 1.474-6.882.11-13.765.073-21.177.073"/><path fill="#1B1B1B" fill-rule="evenodd" d="M135.563 34.617c-.055 18.938-15.262 33.892-34.377 33.8-18.62-.09-33.664-15.317-33.628-34.054C67.595 15.662 82.93.599 101.825.69c18.731.091 33.793 15.226 33.738 33.927m-54.677-.254c-.055 11.606 9.182 20.902 20.739 20.902 11.355 0 20.757-9.405 20.739-20.757 0-11.37-9.329-20.556-20.849-20.556-11.41 0-20.593 9.06-20.648 20.41zM68.508 68.4c-5.787 0-10.881.073-15.956-.073-.73-.018-1.735-.964-2.1-1.71-5.878-12.225-11.684-24.486-17.507-36.748-1.552-3.256-3.195-6.475-4.583-9.805-.438-1.037-.511-2.529-.091-3.565 2.081-5.058 4.363-10.042 6.791-15.5 11.228 22.613 22.2 44.752 33.446 67.4m-68.352 0c5.678-11.352 11.137-22.285 16.778-33.564 3.468 7.059 6.773 13.716 9.968 20.43.273.581.073 1.51-.165 2.2-1.095 3.148-2.208 6.313-3.486 9.387-.274.655-1.242 1.456-1.918 1.474-6.882.11-13.765.073-21.177.073" clip-rule="evenodd"/><path fill="#1B1B1B" d="M135.563 34.617c-.055 18.938-15.262 33.892-34.377 33.8-18.62-.09-33.664-15.317-33.628-34.054C67.595 15.662 82.93.599 101.825.69c18.731.091 33.793 15.226 33.738 33.927m-54.677-.254c-.055 11.606 9.182 20.902 20.739 20.902 11.355 0 20.757-9.405 20.739-20.757 0-11.37-9.329-20.556-20.849-20.556-11.41 0-20.593 9.06-20.648 20.41zM68.508 68.4c-5.787 0-10.881.073-15.956-.073-.73-.018-1.735-.964-2.1-1.71-5.878-12.225-11.684-24.486-17.507-36.748-1.552-3.256-3.195-6.475-4.583-9.805-.438-1.037-.511-2.529-.091-3.565 2.081-5.058 4.363-10.042 6.791-15.5 11.228 22.613 22.2 44.752 33.446 67.4m-68.352 0c5.678-11.352 11.137-22.285 16.778-33.564 3.468 7.059 6.773 13.716 9.968 20.43.273.581.073 1.51-.165 2.2-1.095 3.148-2.208 6.313-3.486 9.387-.274.655-1.242 1.456-1.918 1.474-6.882.11-13.765.073-21.177.073"/><path fill="#1B1B1B" d="M135.563 34.617c-.055 18.938-15.262 33.892-34.377 33.8-18.62-.09-33.664-15.317-33.628-34.054C67.595 15.662 82.93.599 101.825.69c18.731.091 33.793 15.226 33.738 33.927m-54.677-.254c-.055 11.606 9.182 20.902 20.739 20.902 11.355 0 20.757-9.405 20.739-20.757 0-11.37-9.329-20.556-20.849-20.556-11.41 0-20.593 9.06-20.648 20.41zM68.508 68.4c-5.787 0-10.881.073-15.956-.073-.73-.018-1.735-.964-2.1-1.71-5.878-12.225-11.684-24.486-17.507-36.748-1.552-3.256-3.195-6.475-4.583-9.805-.438-1.037-.511-2.529-.091-3.565 2.081-5.058 4.363-10.042 6.791-15.5 11.228 22.613 22.2 44.752 33.446 67.4m-68.352 0c5.678-11.352 11.137-22.285 16.778-33.564 3.468 7.059 6.773 13.716 9.968 20.43.273.581.073 1.51-.165 2.2-1.095 3.148-2.208 6.313-3.486 9.387-.274.655-1.242 1.456-1.918 1.474-6.882.11-13.765.073-21.177.073"/></svg>
